packages/tokens/icons/longTail/size32Px.svg

<svg viewBox="0 0 32 32" fill="none" xmlns="http://www.w3.org/2000/svg" width="1em" height="1em"><path d="M4.5 4.5L4.5 25.5C4.5 26.6046 5.39543 27.5 6.5 27.5L27.5 27.5" stroke="currentColor" stroke-linecap="round"/><path d="M27.5 23.5H17.7361C16.9785 23.5 16.286 23.072 15.9472 22.3944L14.5 19.5" stroke="currentColor" stroke-miterlimit="3.8637" stroke-linecap="round" stroke-dasharray="1 2"/><path d="M5 19.5L27.5 19.5" stroke="currentColor" stroke-linecap="round"/><path d="M4.68188 7.5H7.22799C8.89537 7.5 10.3879 8.5343 10.9733 10.0955L14.4999 19.5" stroke="currentColor" stroke-linecap="round"/></svg>

<svg xmlns="http://www.w3.org/2000/svg" fill="none" viewBox="0 0 32 32" width="1em" height="1em"><path stroke="currentColor" stroke-linecap="round" d="M4.5 4.5v21a2 2 0 0 0 2 2h21"/><path stroke="currentColor" stroke-dasharray="1 2" stroke-linecap="round" stroke-miterlimit="3.864" d="M27.5 23.5h-9.764a2 2 0 0 1-1.789-1.106L14.5 19.5"/><path stroke="currentColor" stroke-linecap="round" d="M5 19.5h22.5M4.682 7.5h2.546a4 4 0 0 1 3.745 2.595L14.5 19.5"/></svg>
